src/pos-icons/pig-variant.svg

<svg height="24" viewBox="0 0 24 24" width="24" xmlns="http://www.w3.org/2000/svg"><path d="m20 12c0-3.31-3.58-6-8-6-.85 0-1.66.1-2.43.28l-2.57-1.28v2.32c-1.5.9-2.55 2.18-2.88 3.68h-2.12v4h3.08c.5.65 1.15 1.22 1.92 1.68v3.32h2v-2.44c.93.28 1.94.44 3 .44s2.07-.16 3-.44v2.44h2v-3.32c1.15-.68 2.03-1.62 2.54-2.68h2.46v-2zm-13-1c-.55 0-1-.45-1-1s.45-1 1-1 1 .45 1 1-.45 1-1 1z"/></svg>

<?xml version="1.0" encoding="UTF-8"?><!DOCTYPE svg PUBLIC "-//W3C//DTD SVG 1.1//EN" "http://www.w3.org/Graphics/SVG/1.1/DTD/svg11.dtd"><svg xmlns="http://www.w3.org/2000/svg" xmlns:xlink="http://www.w3.org/1999/xlink" version="1.1" id="mdi-pig-variant" width="24" height="24" viewBox="0 0 24 24"><path d="M20 12C20 8.69 16.42 6 12 6C11.15 6 10.34 6.1 9.57 6.28L7 5V7.32C5.5 8.22 4.45 9.5 4.12 11H2V15H5.08C5.58 15.65 6.23 16.22 7 16.68V20H9V17.56C9.93 17.84 10.94 18 12 18S14.07 17.84 15 17.56V20H17V16.68C18.15 16 19.03 15.06 19.54 14H22V12H20M7 11C6.45 11 6 10.55 6 10S6.45 9 7 9 8 9.45 8 10 7.55 11 7 11Z" /></svg>
